X:5
T:Eleven Streets. ThoH.005
Q:1/2=100
M:3/2
L:1/8
B:Thompson's Compleat Collection of 120 Favourite Hornpipes.
Z:Village Music Project, Simon Wilson 2016
O:England.
K:D
|:D2F2A2d2fga2|g2e4B2dcBA|dABG AFGE FDEF|A,2D4GFTE2D2:|
|:BdBF GBGE FAFD|C2E4A,2C2E2|fafc dfdA GFED|A,2D4GFTE2D2:|

